X:1
T:La Réjouissance (Royal Fireworks Music)
C:George Frideric Handel
M:4/4
L:1/8
Q:1/4=116
K:D
D2 |
D3 D D3 D | F3 F A3 A | d4 A4 | F3 E D3 F |
A8 | A3 A d3 d | A3 G F3 E | D8 |]
